Numix/64/mimetypes/application-image-gif.svg

<?xml version="1.0" encoding="UTF-8" standalone="no"?>
<svg
   xmlns:dc="http://purl.org/dc/elements/1.1/"
   xmlns:cc="http://creativecommons.org/ns#"
   xmlns:rdf="http://www.w3.org/1999/02/22-rdf-syntax-ns#"
   xmlns:svg="http://www.w3.org/2000/svg"
   xmlns="http://www.w3.org/2000/svg"
   xmlns:sodipodi="http://sodipodi.sourceforge.net/DTD/sodipodi-0.dtd"
   xmlns:inkscape="http://www.inkscape.org/namespaces/inkscape"
   width="64px"
   height="64px"
   viewBox="0 0 64 64"
   version="1.1"
   id="svg2"
   inkscape:version="0.91 r13725"
   sodipodi:docname="application-image-gif.svg">
  <metadata
     id="metadata25">
    <rdf:RDF>
      <cc:Work
         rdf:about="">
        <dc:format>image/svg+xml</dc:format>
        <dc:type
           rdf:resource="http://purl.org/dc/dcmitype/StillImage" />
      </cc:Work>
    </rdf:RDF>
  </metadata>
  <defs
     id="defs23" />
  <sodipodi:namedview
     pagecolor="#ffffff"
     bordercolor="#666666"
     borderopacity="1"
     objecttolerance="10"
     gridtolerance="10"
     guidetolerance="10"
     inkscape:pageopacity="0"
     inkscape:pageshadow="2"
     inkscape:window-width="1366"
     inkscape:window-height="704"
     id="namedview21"
     showgrid="false"
     inkscape:zoom="27.020688"
     inkscape:cx="35.549934"
     inkscape:cy="32"
     inkscape:window-x="0"
     inkscape:window-y="27"
     inkscape:window-maximized="1"
     inkscape:current-layer="svg2" />
  <g
     id="surface1">
    <path
       style=" stroke:none;fill-rule:nonzero;fill:rgb(21.960784%,63.921569%,30.588235%);fill-opacity:1;"
       d="M 10.671875 0 C 9.296875 0 8 1.355469 8 2.789062 L 8 61.210938 C 8 62.566406 9.375 64 10.671875 64 L 53.328125 64 C 54.625 64 56 62.566406 56 61.210938 L 56 18 L 38 0 Z M 10.671875 0 "
       id="path5" />
    <path
       style=" stroke:none;fill-rule:nonzero;fill:rgb(0%,0%,0%);fill-opacity:0.196078;"
       d="M 42 18 L 56 32 L 56 18 Z M 42 18 "
       id="path7" />
    <path
       style=" stroke:none;fill-rule:nonzero;fill:rgb(100%,100%,100%);fill-opacity:0.392157;"
       d="M 38 0 L 55.984375 18 L 40.757812 18 C 39.410156 18 38 16.574219 38 15.226562 Z M 38 0 "
       id="path9" />
    <path
       style="fill:#ffffff;fill-opacity:1;fill-rule:nonzero;stroke:none"
       d="M 23.289062,22 C 22.585938,22.066406 21.984375,22.8125 22,23.605469 l 0,16.828125 c 0.0078,0.828125 0.667969,1.574218 1.40625,1.566406 l 17.222656,0 C 41.355469,41.984375 41.992188,41.253906 42,40.433594 L 42,23.605469 C 42.015625,22.769531 41.371094,22.007812 40.628906,22 Z M 24,24 40,24 40,35.402344 35.296875,30.085938 32.316406,32.859375 28.386719,27.9375 24,33.597656 Z"
       id="path11"
       inkscape:connector-curvature="0"
       sodipodi:nodetypes="ccccccccccccccccc" />
    <path
       style=" stroke:none;fill-rule:nonzero;fill:rgb(0%,0%,0%);fill-opacity:0.196078;"
       d="M 8 48 L 8 61.335938 C 8 62.632812 9.375 64 10.664062 64 L 53.335938 64 C 54.625 64 56 62.632812 56 61.335938 L 56 48 Z M 8 48 "
       id="path13" />
    <path
       style=" stroke:none;fill-rule:nonzero;fill:rgb(100%,100%,100%);fill-opacity:1;"
       d="M 23.691406 52.90625 C 23.113281 52.90625 22.628906 52.996094 22.226562 53.179688 C 21.835938 53.367188 21.507812 53.628906 21.246094 53.957031 C 20.992188 54.28125 20.8125 54.675781 20.6875 55.132812 C 20.582031 55.582031 20.535156 56.082031 20.535156 56.640625 C 20.535156 57.914062 20.761719 58.867188 21.222656 59.480469 C 21.6875 60.078125 22.359375 60.378906 23.257812 60.378906 C 23.398438 60.378906 23.5625 60.371094 23.734375 60.355469 C 23.90625 60.347656 24.0625 60.328125 24.207031 60.304688 L 24.207031 56.394531 L 26.628906 56.394531 L 26.628906 61.746094 C 26.34375 61.835938 25.886719 61.941406 25.273438 62.058594 C 24.667969 62.171875 23.929688 62.230469 23.0625 62.230469 C 22.292969 62.230469 21.605469 62.113281 20.984375 61.875 C 20.378906 61.640625 19.863281 61.289062 19.429688 60.828125 C 18.996094 60.355469 18.660156 59.773438 18.421875 59.078125 C 18.183594 58.375 18.0625 57.5625 18.0625 56.640625 C 18.0625 55.730469 18.203125 54.929688 18.480469 54.234375 C 18.757812 53.53125 19.132812 52.941406 19.601562 52.472656 C 20.074219 52 20.640625 51.648438 21.285156 51.417969 C 21.925781 51.171875 22.621094 51.050781 23.355469 51.050781 C 23.832031 51.050781 24.25 51.089844 24.617188 51.15625 C 25 51.214844 25.328125 51.289062 25.609375 51.359375 C 25.886719 51.441406 26.105469 51.53125 26.277344 51.625 C 26.457031 51.714844 26.597656 51.785156 26.6875 51.835938 L 26.058594 53.53125 C 25.769531 53.367188 25.417969 53.21875 24.992188 53.097656 C 24.578125 52.964844 24.144531 52.90625 23.691406 52.90625 "
       id="path15" />
    <path
       style=" stroke:none;fill-rule:nonzero;fill:rgb(100%,100%,100%);fill-opacity:1;"
       d="M 28.472656 62 L 28.472656 60.238281 L 31.132812 60.238281 L 31.132812 53.0625 L 28.472656 53.0625 L 28.472656 51.296875 L 36.230469 51.296875 L 36.230469 53.0625 L 33.578125 53.0625 L 33.578125 60.238281 L 36.230469 60.238281 L 36.230469 62 L 28.472656 62 "
       id="path17" />
    <path
       style=" stroke:none;fill-rule:nonzero;fill:rgb(100%,100%,100%);fill-opacity:1;"
       d="M 38.511719 62 L 38.511719 51.296875 L 46 51.296875 L 46 53.0625 L 40.941406 53.0625 L 40.941406 55.65625 L 45.363281 55.65625 L 45.363281 57.417969 L 40.941406 57.417969 L 40.941406 62 L 38.511719 62 "
       id="path19" />
  </g>
</svg>

<svg xmlns="http://www.w3.org/2000/svg" viewBox="0 0 64 64">
 <g>
  <path d="m 10.672 0 c -1.375 0 -2.672 1.355 -2.672 2.789 l 0 58.42 c 0 1.355 1.375 2.789 2.672 2.789 l 42.656 0 c 1.297 0 2.672 -1.434 2.672 -2.789 l 0 -43.21 l -18 -18 m -27.328 0" style="fill:#37a34d;fill-opacity:1;stroke:none;fill-rule:nonzero"/>
  <path d="m 42 18 l 14 14 l 0 -14 m -14 0" style="fill:#000;fill-opacity:0.196;stroke:none;fill-rule:nonzero"/>
  <path d="m 38 0 l 17.984 18 l -15.227 0 c -1.348 0 -2.758 -1.426 -2.758 -2.773 m 0 -15.227" style="fill:#fff;fill-opacity:0.392;stroke:none;fill-rule:nonzero"/>
  <path d="m 23.289 22 c -0.703 0.066 -1.305 0.813 -1.289 1.605 l 0 16.828 c 0.008 0.828 0.668 1.574 1.406 1.566 l 17.223 0 c 0.727 -0.016 1.363 -0.746 1.371 -1.566 l 0 -16.828 c 0.016 -0.836 -0.629 -1.598 -1.371 -1.605 m -16.629 2 16 0 0 11.402 -4.703 -5.316 -2.98 2.773 -3.93 -4.922 -4.387 5.66" style="fill:#fff;fill-opacity:1;stroke:none;fill-rule:nonzero"/>
  <path d="m 8 48 l 0 13.336 c 0 1.297 1.375 2.664 2.664 2.664 l 42.672 0 c 1.289 0 2.664 -1.367 2.664 -2.664 l 0 -13.336 m -48 0" style="fill:#000;fill-opacity:0.196;stroke:none;fill-rule:nonzero"/>
  <path d="m 23.691 52.906 c -0.578 0 -1.063 0.09 -1.465 0.273 c -0.391 0.188 -0.719 0.449 -0.98 0.777 c -0.254 0.324 -0.434 0.719 -0.559 1.176 c -0.105 0.449 -0.152 0.949 -0.152 1.508 c 0 1.273 0.227 2.227 0.688 2.84 c 0.465 0.598 1.137 0.898 2.035 0.898 c 0.141 0 0.305 -0.008 0.477 -0.023 c 0.172 -0.008 0.328 -0.027 0.473 -0.051 l 0 -3.91 l 2.422 0 l 0 5.352 c -0.285 0.09 -0.742 0.195 -1.355 0.313 c -0.605 0.113 -1.344 0.172 -2.211 0.172 c -0.77 0 -1.457 -0.117 -2.078 -0.355 c -0.605 -0.234 -1.121 -0.586 -1.555 -1.047 c -0.434 -0.473 -0.77 -1.055 -1.01 -1.75 c -0.238 -0.703 -0.359 -1.516 -0.359 -2.438 c 0 -0.91 0.141 -1.711 0.418 -2.406 c 0.277 -0.703 0.652 -1.293 1.121 -1.762 c 0.473 -0.473 1.039 -0.824 1.684 -1.055 c 0.641 -0.246 1.336 -0.367 2.07 -0.367 c 0.477 0 0.895 0.039 1.262 0.105 c 0.383 0.059 0.711 0.133 0.992 0.203 c 0.277 0.082 0.496 0.172 0.668 0.266 c 0.18 0.09 0.32 0.16 0.41 0.211 l -0.629 1.695 c -0.289 -0.164 -0.641 -0.313 -1.066 -0.434 c -0.414 -0.133 -0.848 -0.191 -1.301 -0.191" style="fill:#fff;fill-opacity:1;stroke:none;fill-rule:nonzero"/>
  <path d="m 28.473 62 l 0 -1.762 l 2.66 0 l 0 -7.176 l -2.66 0 l 0 -1.766 l 7.758 0 l 0 1.766 l -2.652 0 l 0 7.176 l 2.652 0 l 0 1.762 l -7.758 0" style="fill:#fff;fill-opacity:1;stroke:none;fill-rule:nonzero"/>
  <path d="m 38.512 62 l 0 -10.703 l 7.488 0 l 0 1.766 l -5.059 0 l 0 2.594 l 4.422 0 l 0 1.762 l -4.422 0 l 0 4.582 l -2.43 0" style="fill:#fff;fill-opacity:1;stroke:none;fill-rule:nonzero"/>
 </g>
</svg>
